svg/material-icons/text_snippet/materialiconsoutlined/24px.svg

<svg xmlns="http://www.w3.org/2000/svg" width="24" height="24" viewBox="0 0 24 24"><path d="M14.17 5 19 9.83V19H5V5h9.17m0-2H5c-1.1 0-2 .9-2 2v14c0 1.1.9 2 2 2h14c1.1 0 2-.9 2-2V9.83c0-.53-.21-1.04-.59-1.41l-4.83-4.83c-.37-.38-.88-.59-1.41-.59zM7 15h10v2H7v-2zm0-4h10v2H7v-2zm0-4h7v2H7V7z"/></svg>

<svg xmlns="http://www.w3.org/2000/svg" enable-background="new 0 0 24 24" height="24" viewBox="0 0 24 24" width="24"><g><rect fill="none" height="24" width="24"/><path d="M14.17,5L19,9.83V19H5V5L14.17,5L14.17,5 M14.17,3H5C3.9,3,3,3.9,3,5v14c0,1.1,0.9,2,2,2h14c1.1,0,2-0.9,2-2V9.83 c0-0.53-0.21-1.04-0.59-1.41l-4.83-4.83C15.21,3.21,14.7,3,14.17,3L14.17,3z M7,15h10v2H7V15z M7,11h10v2H7V11z M7,7h7v2H7V7z"/></g></svg>
